X: 146
T: Missa Tous les regretz / Agnus Dei
N: Derived from Rue1031e-Missa_Tous_les_regretz-Agnus.krn
C: Pierre de la Rue
%%abc-version 2.0
%%abcx-abcm2ps-target-version 5.9.1 (29 Sep 2008)
%%abc-creator hum2abc beta
%%abcx-conversion-date 2019/02/17 08:01:15
%%abc-edited-by Jesse Rodin
%%abc-edited-by Chris Gage 06-11-2013
%%abcx-initial-encoding-date 2013/08/05/
%%humdrum-veritas 2890644571
%%humdrum-veritas-data 949706847
%%linebreak <none>
%%barnumbers 0
L: 1/4
M: 2/1
Q: 1/2=120
%%staves [1 2 3 4]
V: 1 clef=treble
V: 2 clef=treble-8
V: 3 clef=treble-8
V: 4 clef=bass
K: C
[V:1] z8 | 
[V:2] d8 | 
[V:3] z8 | 
[V:4] z8 | 
[V:1] z8 | 
[V:2] d4d2cB | 
[V:3] z8 | 
[V:4] z8 | 
[V:1] A8 | 
[V:2] d2c3BAG | 
[V:3] z8 | 
[V:4] z8 | 
[V:1] A4A2GF | 
[V:2] F4A2B2 | 
[V:3] z8 | 
[V:4] D,8 | 
[V:1] A2G3FED | 
[V:2] c3BG2A2- | 
[V:3] z8 | 
[V:4] C,4C,4 | 
[V:1] C8 | 
[V:2] A2GFE4 | 
[V:3] A8 | 
[V:4] A,,2C,3B,,A,,G,, | 
[V:1] z4A4 | 
[V:2] z4c4 | 
[V:3] A4A4 | 
[V:4] F,,4F,4 | 
[V:1] A4A4 | 
[V:2] d4f4 | 
[V:3] A6GF | 
[V:4] F,4D,4 | 
[V:1] c6c2 | 
[V:2] e4c4- | 
[V:3] A2G3FED | 
[V:4] C,4C,3B,, | 
[V:1] c4_B4 | 
[V:2] c2BAG4 | 
[V:3] C2F4E2 | 
[V:4] A,,2F,,2G,,4 | 
[V:1] A6GF | 
[V:2] z2c4BA | 
[V:3] F8 | 
[V:4] F,,8 | 
[V:1] G2A3GE2 | 
[V:2] B2c3BAG | 
[V:3] z4A4 | 
[V:4] z8 | 
[V:1] F2A4GF | 
[V:2] F8 | 
[V:3] A4A4 | 
[V:4] z2F,4E,D, | 
[V:1] A2G3FED | 
[V:2] z8 | 
[V:3] c6c2 | 
[V:4] C,4C,4 | 
[V:1] C2F4E2 | 
[V:2] z8 | 
[V:3] c4B4 | 
[V:4] F,4G,4 | 
[V:1] F8 | 
[V:2] c4c3B | 
[V:3] A8 | 
[V:4] F,8 | 
[V:1] z8 | 
[V:2] c2d3cBA | 
[V:3] z8 | 
[V:4] F,3E,F,2G,2- | 
[V:1] z8 | 
[V:2] G2G2c3d | 
[V:3] z8 | 
[V:4] G,F,E,D,C,4 | 
[V:1] z8 | 
[V:2] e2e2d2cB | 
[V:3] z8 | 
[V:4] z2C,2F,3G, | 
[V:1] z8 | 
[V:2] cAc2Bcde | 
[V:3] z8 | 
[V:4] A,2A,2G,2F,E, | 
[V:1] z4F4 | 
[V:2] d2c4B2 | 
[V:3] F8 | 
[V:4] F,E,D,C,D,4 | 
[V:1] E4E4 | 
[V:2] c4c4 | 
[V:3] G4G4 | 
[V:4] C,8 | 
[V:1] D4G4 | 
[V:2] d8 | 
[V:3] G8 | 
[V:4] G,,8 | 
[V:1] F4E2F2- | 
[V:2] z8 | 
[V:3] A8- | 
[V:4] D,4C,2D,2- | 
[V:1] F2EDC3D | 
[V:2] z8 | 
[V:3] A8 | 
[V:4] D,2C,B,,A,,4 | 
[V:1] E2F3EDC | 
[V:2] z8 | 
[V:3] A3GA2B2- | 
[V:4] z8 | 
[V:1] DCB,A,B,4 | 
[V:2] z4d4 | 
[V:3] BAA4^G2 | 
[V:4] z8 | 
[V:1] A,8 | 
[V:2] c3de2f2- | 
[V:3] A8- | 
[V:4] A,,3B,,C,2D,2- | 
[V:1] z4A4 | 
[V:2] f2e4d2 | 
[V:3] A8 | 
[V:4] D,2E,2F,4 | 
[V:1] G3AB2c2 | 
[V:2] e4e2e2- | 
[V:3] z8 | 
[V:4] E,8- | 
[V:1] B2A4^G2 | 
[V:2] e2dcB4 | 
[V:3] z8 | 
[V:4] E,8 | 
[V:1] A8 | 
[V:2] A2c4BA | 
[V:3] z4A4 | 
[V:4] A,,3B,,C,2D,2- | 
[V:1] z4B4 | 
[V:2] B2A4^G2 | 
[V:3] d4d4 | 
[V:4] D,C,B,,A,,B,,4 | 
[V:1] c6B2 | 
[V:2] A8- | 
[V:3] c8 | 
[V:4] A,,8 | 
[V:1] A2G2F2E2 | 
[V:2] A8 | 
[V:3] z4c4 | 
[V:4] z4A,4 | 
[V:1] D4G4- | 
[V:2] z4G4 | 
[V:3] d6c2 | 
[V:4] B,6A,2 | 
[V:1] G4G4 | 
[V:2] G4G4 | 
[V:3] B2A2G2F2 | 
[V:4] G,2F,2E,2D,2 | 
[V:1] G4F2E2- | 
[V:2] G4C2G2- | 
[V:3] E2D2A2B2- | 
[V:4] C,2B,,2A,,2G,,2 | 
[V:1] E2DCD4 | 
[V:2] GFE4D2 | 
[V:3] B2A4G2 | 
[V:4] A,,4B,,4 | 
[V:1] C4F4 | 
[V:2] E4c4 | 
[V:3] A4A4 | 
[V:4] A,,4A,,4 | 
[V:1] G6F2 | 
[V:2] d6c2 | 
[V:3] B6A2 | 
[V:4] G,,8 | 
[V:1] E2D2C2D2- | 
[V:2] B4A2G2 | 
[V:3] G2F2E2D2 | 
[V:4] G,,4A,,2B,,2- | 
[V:1] D2^CB,C4 | 
[V:2] B4A4 | 
[V:3] E8 | 
[V:4] B,,2G,,2A,,4 | 
[V:1] D8 ||  
[V:2] A8 ||  
[V:3] D8 ||  
[V:4] D,8 ||  
[V:1]  [K:C] [K:clef=treble][M:2/1]D6E2 | 
[V:2]  [K:C] [K:clef=treble-8][M:2/1]d6cB | 
[V:3]  [K:C] [K:clef=treble-8][M:2/1]z8 | 
[V:4]  [K:C] [K:clef=bass][M:2/1]z8 | 
[V:1] F4G4 | 
[V:2] A4B4 | 
[V:3] z8 | 
[V:4] z8 | 
[V:1] E4D4 | 
[V:2] c4d4- | 
[V:3] z8 | 
[V:4] z8 | 
[V:1] z4A4- | 
[V:2] d2cBc4 | 
[V:3] z8 | 
[V:4] z8 | 
[V:1] A2GFG4 | 
[V:2] d4e4 | 
[V:3] z8 | 
[V:4] z8 | 
[V:1] A4B4 | 
[V:2] f4d4 | 
[V:3] z8 | 
[V:4] z8 | 
[V:1] c4A4 | 
[V:2] c4f4 | 
[V:3] z8 | 
[V:4] z8 | 
[V:1] G4c4 | 
[V:2] e2e4dc | 
[V:3] z8 | 
[V:4] z8 | 
[V:1] B2B4AG | 
[V:2] d2e3dcB | 
[V:3] z8 | 
[V:4] z8 | 
[V:1] A2B3AGF | 
[V:2] A2d3cc2- | 
[V:3] z8 | 
[V:4] z8 | 
[V:1] E2A4^G2 | 
[V:2] c2BAB4 | 
[V:3] z8 | 
[V:4] z8 | 
[V:1] A8 | 
[V:2] A8- | 
[V:3] z8 | 
[V:4] z8 | 
[V:1] z4E4 | 
[V:2] A8 | 
[V:3] z8 | 
[V:4] z8 | 
[V:1] E4E4 | 
[V:2] z4A4 | 
[V:3] z8 | 
[V:4] z8 | 
[V:1] F6E2 | 
[V:2] A4A4 | 
[V:3] z8 | 
[V:4] z8 | 
[V:1] D2G4F2 | 
[V:2] B6A2 | 
[V:3] z8 | 
[V:4] z8 | 
[V:1] E3DC2F2- | 
[V:2] G2c4B2 | 
[V:3] z8 | 
[V:4] z8 | 
[V:1] F2E2D2C2 | 
[V:2] A2G2F4 | 
[V:3] z8 | 
[V:4] z8 | 
[V:1] _B,2G4F2 | 
[V:2] z2_B4A2 | 
[V:3] z8 | 
[V:4] z8 | 
[V:1] E2D2C2B,2 | 
[V:2] G2F2E2DE | 
[V:3] z8 | 
[V:4] z8 | 
[V:1] A,4B,4 | 
[V:2] FGA4^G2 | 
[V:3] z8 | 
[V:4] z8 | 
[V:1] A,8 | 
[V:2] A4z2A2- | 
[V:3] z8 | 
[V:4] z8 | 
[V:1] z4z2C2- | 
[V:2] A2GFG2A2- | 
[V:3] z8 | 
[V:4] z8 | 
[V:1] C2B,A,B,2C2- | 
[V:2] A2GFG2A2- | 
[V:3] z8 | 
[V:4] z8 | 
[V:1] CDEFD2C2 | 
[V:2] A2GFG2A2 | 
[V:3] z8 | 
[V:4] z8 | 
[V:1] z2F2G3F | 
[V:2] D2A2B2c2 | 
[V:3] z8 | 
[V:4] z8 | 
[V:1] DEF4CD | 
[V:2] d3cABc2 | 
[V:3] z8 | 
[V:4] z8 | 
[V:1] EFG3FED | 
[V:2] A2GA_BAGF | 
[V:3] z8 | 
[V:4] z8 | 
[V:1] E2D4^C2 | 
[V:2] GFEDE4 | 
[V:3] z8 | 
[V:4] z8 | 
[V:1] D8 ||  
[V:2] D8 ||  
[V:3] z8 ||  
[V:4] z8 ||  
[V:1]  [K:C] [K:clef=treble][M:2/1]z8 | 
[V:2]  [K:C] [K:clef=treble-8][M:2/1]z8 | 
[V:3]  [K:C] [K:clef=treble-8][M:2/1]z4A4 | 
[V:4]  [K:C] [K:clef=bass][M:2/1]D,6E,2 | 
[V:1] z8 | 
[V:2] z8 | 
[V:3] A4B4 | 
[V:4] F,4G,4 | 
[V:1] z8 | 
[V:2] z8 | 
[V:3] A6B2 | 
[V:4] F,2D,4C,B,, | 
[V:1] z8 | 
[V:2] z8 | 
[V:3] c4d4 | 
[V:4] A,,2C,2B,,4 | 
[V:1] z8 | 
[V:2] z8 | 
[V:3] c2A4GF | 
[V:4] A,,8 | 
[V:1] z8 | 
[V:2] z8 | 
[V:3] E2G2F4 | 
[V:4] z4A,,4- | 
[V:1] z8 | 
[V:2] z8 | 
[V:3] E6D2 | 
[V:4] A,,2G,,2A,,2B,,2 | 
[V:1] z8 | 
[V:2] z8 | 
[V:3] E2F2G3A | 
[V:4] C,3D,E,F,G,2- | 
[V:1] z8 | 
[V:2] z8 | 
[V:3] Bcd3cBA | 
[V:4] G,2F,E,D,3C, | 
[V:1] z8 | 
[V:2] z4d4 | 
[V:3] B2A4^G2 | 
[V:4] D,C,B,,A,,B,,4 | 
[V:1] z8 | 
[V:2] c3Bcdef | 
[V:3] A8 | 
[V:4] A,,2A,4G,F, | 
[V:1] z8 | 
[V:2] e2d4^c2 | 
[V:3] z4G4 | 
[V:4] G,F,E,D,E,4 | 
[V:1] z4F4 | 
[V:2] d8 | 
[V:3] A4A4 | 
[V:4] D,8- | 
[V:1] F4F4 | 
[V:2] z4d4 | 
[V:3] A4A4 | 
[V:4] D,8 | 
[V:1] F4F4 | 
[V:2] d4d4 | 
[V:3] _B4A4 | 
[V:4] z4D,4 | 
[V:1] G4G4 | 
[V:2] d4G4 | 
[V:3] _B8 | 
[V:4] G,,4G,,4 | 
[V:1] A8 | 
[V:2] c4d2c2- | 
[V:3] A8- | 
[V:4] F,,4F,,4 | 
[V:1] A4A2A2- | 
[V:2] c2f4ed | 
[V:3] A8 | 
[V:4] F,,4F,,4 | 
[V:1] A2GFc4- | 
[V:2] c4c4 | 
[V:3] A4A2A2- | 
[V:4] F,,8- | 
[V:1] c2B2A4 | 
[V:2] f6ed | 
[V:3] A2GFc4- | 
[V:4] F,,8 | 
[V:1] G4z4 | 
[V:2] e8- | 
[V:3] c2B2A4 | 
[V:4] C,8 | 
[V:1] z4z2C2- | 
[V:2] e8 | 
[V:3] G8 | 
[V:4] C,8 | 
[V:1] CDEFG2A2 | 
[V:2] z8 | 
[V:3] c4c3B | 
[V:4] C,3D,E,2F,2 | 
[V:1] B3A/B/c2B2- | 
[V:2] z8 | 
[V:3] G2d2c2d2- | 
[V:4] G,3F,/G,/A,2G,2 | 
[V:1] B2A3^GG2 | 
[V:2] z8 | 
[V:3] dcA2B4 | 
[V:4] A,4E,4 | 
[V:1] A8- | 
[V:2] z2c2d2cB | 
[V:3] A2F4ED | 
[V:4] A,,4z4 | 
[V:1] A8 | 
[V:2] c2d2f2e2- | 
[V:3] E2D4C2 | 
[V:4] A,,8 | 
[V:1] z4A4 | 
[V:2] e2d3^c^c2 | 
[V:3] D4E4 | 
[V:4] D,4A,,4 | 
[V:1] A2F4ED | 
[V:2] d8 | 
[V:3] D8 | 
[V:4] z4D,4 | 
[V:1] E8 | 
[V:2] z4c4 | 
[V:3] z4A4 | 
[V:4] A,,8 | 
[V:1] F8 | 
[V:2] d8 | 
[V:3] A8 | 
[V:4] D,8 | 
[V:1] G6F2 | 
[V:2] d8 | 
[V:3] _B8- | 
[V:4] G,,8- | 
[V:1] E2DCD4 | 
[V:2] G8 | 
[V:3] B8 | 
[V:4] G,,8 | 
[V:1] C8- | 
[V:2] z8 | 
[V:3] A6GF | 
[V:4] z4C,4 | 
[V:1] C8 | 
[V:2] z8 | 
[V:3] E2A2A2G2- | 
[V:4] C,6B,,2 | 
[V:1] z8 | 
[V:2] z4G4 | 
[V:3] G2F3EE2 | 
[V:4] A,,2G,,F,,G,,4 | 
[V:1] z4c4 | 
[V:2] A4A4 | 
[V:3] F8- | 
[V:4] F,,8- | 
[V:1] c6B2 | 
[V:2] A4c4- | 
[V:3] F8 | 
[V:4] F,,8 | 
[V:1] A2GFGFA2 | 
[V:2] c2BABAc2- | 
[V:3] z8 | 
[V:4] z4z2F,,2 | 
[V:1] GFF4E2 | 
[V:2] c2BAG4 | 
[V:3] z8 | 
[V:4] A,,2B,,2C,4 | 
[V:1] F4F4 | 
[V:2] F4z2c2 | 
[V:3] A6GF | 
[V:4] F,,4F,4 | 
[V:1] G2E4F2 | 
[V:2] c4c4 | 
[V:3] E4C4 | 
[V:4] C,3B,,A,,4 | 
[V:1] G2E2F2D2 | 
[V:2] _B2G2A4 | 
[V:3] D2G3FF2 | 
[V:4] G,,4D,4 | 
[V:1] ED^CB,C4 | 
[V:2] _B4A4 | 
[V:3] GFEDE4 | 
[V:4] z4A,,4 | 
[V:1] D8- | 
[V:2] F6G2 | 
[V:3] D8- | 
[V:4] _B,,6A,,G,, | 
[V:1] D8- | 
[V:2] A4_B4 | 
[V:3] D8- | 
[V:4] F,,4G,,4 | 
[V:1] D8 |]  
[V:2] A8 |]  
[V:3] D8 |]  
[V:4] D,,8 & D,8 |]  



% FRACTION = 0.875BUT SHOULD BE 0
